src/navbar/logo.svg

<?xml version="1.0" encoding="UTF-8" standalone="no"?>
<svg
   viewBox="0 0 635.69135 167.66104"
   version="1.1"
   id="svg86"
   sodipodi:docname="logo.svg"
   width="635.69135"
   height="167.66104"
   inkscape:version="1.1 (c68e22c387, 2021-05-23)"
   xmlns:inkscape="http://www.inkscape.org/namespaces/inkscape"
   xmlns:sodipodi="http://sodipodi.sourceforge.net/DTD/sodipodi-0.dtd"
   xmlns="http://www.w3.org/2000/svg"
   xmlns:svg="http://www.w3.org/2000/svg">
  <sodipodi:namedview
     id="namedview88"
     pagecolor="#ffffff"
     bordercolor="#666666"
     borderopacity="1.0"
     inkscape:pageshadow="2"
     inkscape:pageopacity="0.0"
     inkscape:pagecheckerboard="0"
     showgrid="false"
     fit-margin-top="0"
     fit-margin-left="0"
     fit-margin-right="0"
     fit-margin-bottom="0"
     inkscape:zoom="1.403165"
     inkscape:cx="338.16407"
     inkscape:cy="130.06311"
     inkscape:window-width="1920"
     inkscape:window-height="1001"
     inkscape:window-x="-9"
     inkscape:window-y="-9"
     inkscape:window-maximized="1"
     inkscape:current-layer="tight-bounds" />
  <g
     id="tight-bounds"
     transform="translate(119.72933,40.318184)">
    <g
       transform="matrix(1.099409,0,0,1.099409,81.12376,8.3625644)"
       id="g17">
      <svg
         viewBox="0 0 395.52 63.943018"
         height="63.943016"
         width="395.51999"
         version="1.1"
         id="svg15">
        <g
           id="g13">
          <svg
             viewBox="0 0 395.52 63.943018"
             height="63.943016"
             width="395.51999"
             version="1.1"
             id="svg11">
            <g
               id="g9">
              <svg
                 viewBox="0 0 395.52 63.943018"
                 height="63.943016"
                 width="395.51999"
                 version="1.1"
                 id="svg7">
                <g
                   id="g5">
                  <svg
                     width="395.51999"
                     viewBox="4.1999998 -33.080002 208.38 33.690002"
                     height="63.943016"
                     data-palette-color="#528265"
                     version="1.1"
                     id="svg3">
                    <path
                       d="m 24.72,-2.38 q -1.8,1.43 -4.65,2.21 -2.86,0.78 -7.02,0.78 -4.16,0 -8.85,-0.76 v 0 -32.17 q 4.74,-0.76 8.21,-0.76 3.48,0 5.72,0.66 2.23,0.66 3.65,1.78 v 0 q 2.78,2.17 2.78,5.63 0,3.45 -2.51,5.72 v 0 q 2.97,0.93 4.61,3.52 v 0 q 1.49,2.32 1.49,5.14 0,2.82 -0.82,4.82 -0.82,2 -2.61,3.43 z M 10.67,-27.81 v 7.62 q 1.02,0.17 2.56,0.17 1.54,0 2.53,-0.4 0.99,-0.41 1.53,-1.02 v 0 q 0.87,-1 0.87,-2.78 v 0 q 0,-3.73 -4.39,-3.73 v 0 q -1.86,0 -3.1,0.14 z m 3.61,12.84 v 0 q -2.05,0 -3.61,0.27 v 0 9.6 q 1.71,0.44 3.59,0.44 1.88,0 3.31,-0.45 1.42,-0.46 2.4,-1.24 v 0 q 1.98,-1.61 1.98,-4.1 v 0 q 0,-4.52 -7.67,-4.52 z M 34.18,0 v -32.57 q 2.44,0.1 2.95,0.1 v 0 h 1.76 q 1.29,0 2.07,-0.2 v 0 L 40.94,0 Z m 22.53,0 h -6.37 q 0.14,-0.83 0.14,-1.81 v 0 -30.66 h 4.89 l 12.94,20.36 v -18.7 q 0,-1.34 -0.25,-1.66 v 0 h 6.59 q -0.12,0.98 -0.12,2.15 v 0 V 0 H 69.45 L 56.71,-19.56 Z m 29.24,-3.86 q -2.22,-2.12 -3.5,-5.1 -1.28,-2.98 -1.28,-6.53 0,-3.55 1.2,-6.73 1.19,-3.17 3.41,-5.59 2.23,-2.41 5.37,-3.84 3.15,-1.43 7.06,-1.43 v 0 q 6.74,0 11.35,4.25 v 0 q 4.93,4.54 4.93,12.25 v 0 q 0,7.47 -5.07,12.43 v 0 q -3.13,3.05 -7.45,4.2 v 0 Q 99.85,0.61 97,0.61 q -2.84,0 -5.83,-1.17 -2.99,-1.17 -5.22,-3.3 z m 2.01,-11.96 v 0 q 0,2.27 0.75,4.17 0.76,1.91 2.1,3.28 v 0 q 2.86,2.88 7.35,2.88 v 0 q 4.27,0 6.86,-2.76 v 0 q 2.64,-2.86 2.64,-7.79 v 0 q 0,-4.64 -2.52,-7.74 v 0 q -2.71,-3.32 -7.42,-3.32 v 0 q -4.56,0 -7.25,3.37 v 0 q -2.51,3.15 -2.51,7.91 z M 132.49,-27 V 0.15 Q 131.31,0 126.45,0 v 0 h -0.78 v -27 h -4.83 q -2.15,0 -2.54,0.22 -0.39,0.22 -0.61,0.39 v 0 l -0.07,-0.03 v -6.25 l 0.07,-0.07 q 0.81,0.27 4.35,0.27 v 0 h 15.3 q 2.15,0 2.54,-0.22 0.39,-0.22 0.61,-0.39 v 0 l 0.08,0.02 v 6.25 l -0.08,0.08 Q 139.69,-27 136.15,-27 v 0 z m 14.08,27 v -32.57 q 2.44,0.1 2.95,0.1 v 0 h 1.76 q 1.3,0 2.08,-0.2 v 0 L 153.33,0 Z m 32.98,-20.07 0.07,6.03 q -1.17,-0.12 -3.02,-0.12 v 0 h -7.4 V 0 h -6.69 v -32.64 q 0.66,0.05 1.51,0.07 v 0 l 1.81,0.05 q 1.86,0.05 3.86,0.05 v 0 q 6,0 11.47,-0.2 v 0 q -0.27,2.15 -0.27,5.74 v 0 q 0,0.39 0.05,0.59 v 0 l -0.05,0.07 q -1.29,-0.37 -3.61,-0.37 v 0 h -8.08 v 6.72 h 7.13 q 2.68,0 3.22,-0.15 z M 201.59,0 h -7.32 q 0.32,-0.95 0.32,-4.44 v 0 -6.79 q -4.23,-9.3 -5.4,-11.61 -1.17,-2.31 -1.98,-3.65 v 0 q -2.54,-4.3 -3.06,-4.93 -0.52,-0.64 -1.06,-1.05 v 0 h 8.42 q 0.27,0.49 0.73,1.44 v 0 l 5.91,12.48 q 0.42,-1.03 0.98,-2.3 v 0 q 5.32,-11.45 5.39,-11.62 v 0 h 8.06 q -1.24,1 -3.05,4.2 v 0 q -0.56,0.95 -1.12,2.17 v 0 l -5.52,11.5 q -0.93,2.08 -1.59,3.74 v 0 7 q 0,2.44 0.29,3.86 z"
                       opacity="1"
                       fill="#528265"
                       class="undefined-text-0"
                       data-fill-palette-color="primary"
                       id="text-0" />
                  </svg>
                </g>
              </svg>
            </g>
          </svg>
        </g>
      </svg>
    </g>
    <g
       id="g73"
       transform="matrix(1.099409,0,0,1.099409,-119.72933,-40.318189)">
      <svg
         viewBox="0 0 152.50106 152.50106"
         height="152.50107"
         width="152.50107"
         version="1.1"
         id="svg71">
        <g
           id="g21">
          <svg
             version="1.1"
             id="svg19"
             width="100%"
             height="100%" />
        </g>
        <g
           id="icon-0">
          <svg
             viewBox="0 0 152.50106 152.50106"
             height="152.50107"
             width="152.50107"
             version="1.1"
             id="svg68">
            <g
               id="g25">
              <path
                 d="M 0,76.251 C 0,34.139 34.139,0 76.251,0 c 42.112,0 76.251,34.139 76.25,76.251 0,42.112 -34.139,76.251 -76.25,76.25 C 34.139,152.501 0,118.362 0,76.251 Z m 76.251,70.484 c 38.927,0 70.484,-31.557 70.484,-70.484 0,-38.927 -31.557,-70.484 -70.484,-70.485 -38.927,0 -70.484,31.557 -70.485,70.485 0,38.927 31.557,70.484 70.485,70.484 z"
                 data-fill-palette-color="accent"
                 fill="#398378"
                 stroke="transparent"
                 id="path23" />
            </g>
            <g
               transform="translate(35.052711,35.052711)"
               id="g66">
              <svg
                 viewBox="0 0 82.395639 82.395639"
                 height="82.395638"
                 width="82.395638"
                 version="1.1"
                 id="svg64">
                <g
                   id="g62">
                  <svg
                     version="1.0"
                     x="0"
                     y="0"
                     viewBox="1 1 48 48"
                     enable-background="new 0 0 50 50"
                     xml:space="preserve"
                     height="82.395638"
                     width="82.395638"
                     class="icon-x-0"
                     data-fill-palette-color="accent"
                     id="x-0"><g
                       fill="#398378"
                       data-fill-palette-color="accent"
                       id="g59"><g
                         fill="#398378"
                         data-fill-palette-color="accent"
                         id="g33"><rect
                           x="1"
                           y="1"
                           fill="#398378"
                           width="23"
                           height="5"
                           data-fill-palette-color="accent"
                           id="rect27" /><rect
                           x="1"
                           y="10"
                           fill="#398378"
                           width="23"
                           height="5"
                           data-fill-palette-color="accent"
                           id="rect29" /><rect
                           x="1"
                           y="19"
                           fill="#398378"
                           width="23"
                           height="5"
                           data-fill-palette-color="accent"
                           id="rect31" /></g><g
                         fill="#398378"
                         data-fill-palette-color="accent"
                         id="g41"><rect
                           x="26"
                           y="26"
                           fill="#398378"
                           width="23"
                           height="5"
                           data-fill-palette-color="accent"
                           id="rect35" /><rect
                           x="26"
                           y="35"
                           fill="#398378"
                           width="23"
                           height="5"
                           data-fill-palette-color="accent"
                           id="rect37" /><rect
                           x="26"
                           y="44"
                           fill="#398378"
                           width="23"
                           height="5"
                           data-fill-palette-color="accent"
                           id="rect39" /></g><g
                         fill="#398378"
                         data-fill-palette-color="accent"
                         id="g49"><rect
                           x="19"
                           y="26"
                           fill="#398378"
                           width="5"
                           height="23"
                           data-fill-palette-color="accent"
                           id="rect43" /><rect
                           x="10"
                           y="26"
                           fill="#398378"
                           width="5"
                           height="23"
                           data-fill-palette-color="accent"
                           id="rect45" /><rect
                           x="1"
                           y="26"
                           fill="#398378"
                           width="5"
                           height="23"
                           data-fill-palette-color="accent"
                           id="rect47" /></g><g
                         fill="#398378"
                         data-fill-palette-color="accent"
                         id="g57"><rect
                           x="44"
                           y="1"
                           fill="#398378"
                           width="5"
                           height="23"
                           data-fill-palette-color="accent"
                           id="rect51" /><rect
                           x="35"
                           y="1"
                           fill="#398378"
                           width="5"
                           height="23"
                           data-fill-palette-color="accent"
                           id="rect53" /><rect
                           x="26"
                           y="1"
                           fill="#398378"
                           width="5"
                           height="23"
                           data-fill-palette-color="accent"
                           id="rect55" /></g></g></svg>
                </g>
              </svg>
            </g>
          </svg>
        </g>
      </svg>
    </g>
    <rect
       width="635.69135"
       height="167.66104"
       fill="none"
       stroke="none"
       visibility="hidden"
       id="rect81"
       x="-119.72932"
       y="-40.318188"
       style="stroke-width:1.60722" />
  </g>
  <defs
     id="defs84" />
</svg>

<svg viewBox="0 0 640 400"   xmlns="http://www.w3.org/2000/svg" xmlns:xlink="http://www.w3.org/1999/xlink"><g id="tight-bounds" transform="matrix(1,0,0,1,122.24000000000001,147.84159476964322)"><svg viewBox="0 0 395.52 104.31681046071358" height="104.31681046071358" width="395.52"><g><svg viewBox="0 0 578.2118845382527 152.5010607946726" height="104.31681046071358" width="395.52"><g transform="matrix(1,0,0,1,182.69188453825274,44.27902149386864)"><svg viewBox="0 0 395.52 63.94301780693533" height="63.94301780693533" width="395.52"><g><svg viewBox="0 0 395.52 63.94301780693533" height="63.94301780693533" width="395.52"><g><svg viewBox="0 0 395.52 63.94301780693533" height="63.94301780693533" width="395.52"><g transform="matrix(1,0,0,1,0,0)"><svg width="395.52" viewBox="4.199999809265137 -33.08000183105469 208.3800048828125 33.69000244140625" height="63.94301780693533" data-palette-color="#528265"><path d="M24.72-2.38Q22.92-0.95 20.07-0.17 17.21 0.61 13.05 0.61 8.89 0.61 4.2-0.15L4.2-0.15 4.2-32.32Q8.94-33.08 12.41-33.08 15.89-33.08 18.13-32.42 20.36-31.76 21.78-30.64L21.78-30.64Q24.56-28.47 24.56-25.01 24.56-21.56 22.05-19.29L22.05-19.29Q25.02-18.36 26.66-15.77L26.66-15.77Q28.15-13.45 28.15-10.63 28.15-7.81 27.33-5.81 26.51-3.81 24.72-2.38ZM10.67-27.81L10.67-20.19Q11.69-20.02 13.23-20.02 14.77-20.02 15.76-20.42 16.75-20.83 17.29-21.44L17.29-21.44Q18.16-22.44 18.16-24.22L18.16-24.22Q18.16-27.95 13.77-27.95L13.77-27.95Q11.91-27.95 10.67-27.81L10.67-27.81ZM14.28-14.97L14.28-14.97Q12.23-14.97 10.67-14.7L10.67-14.7 10.67-5.1Q12.38-4.66 14.26-4.66 16.14-4.66 17.57-5.11 18.99-5.57 19.97-6.35L19.97-6.35Q21.95-7.96 21.95-10.45L21.95-10.45Q21.95-14.97 14.28-14.97ZM34.18 0L34.18-32.57Q36.62-32.47 37.13-32.47L37.13-32.47 38.89-32.47Q40.18-32.47 40.96-32.67L40.96-32.67 40.94 0 34.18 0ZM56.71 0L50.34 0Q50.48-0.83 50.48-1.81L50.48-1.81 50.48-32.47 55.37-32.47 68.31-12.11 68.31-30.81Q68.31-32.15 68.06-32.47L68.06-32.47 74.65-32.47Q74.53-31.49 74.53-30.32L74.53-30.32 74.53 0 69.45 0 56.71-19.56 56.71 0ZM85.95-3.86Q83.73-5.98 82.45-8.96 81.17-11.94 81.17-15.49 81.17-19.04 82.37-22.22 83.56-25.39 85.78-27.81 88.01-30.22 91.15-31.65 94.3-33.08 98.21-33.08L98.21-33.08Q104.95-33.08 109.56-28.83L109.56-28.83Q114.49-24.29 114.49-16.58L114.49-16.58Q114.49-9.11 109.42-4.15L109.42-4.15Q106.29-1.1 101.97 0.05L101.97 0.05Q99.85 0.61 97 0.61 94.16 0.61 91.17-0.56 88.18-1.73 85.95-3.86ZM87.96-15.82L87.96-15.82Q87.96-13.55 88.71-11.65 89.47-9.74 90.81-8.37L90.81-8.37Q93.67-5.49 98.16-5.49L98.16-5.49Q102.43-5.49 105.02-8.25L105.02-8.25Q107.66-11.11 107.66-16.04L107.66-16.04Q107.66-20.68 105.14-23.78L105.14-23.78Q102.43-27.1 97.72-27.1L97.72-27.1Q93.16-27.1 90.47-23.73L90.47-23.73Q87.96-20.58 87.96-15.82ZM132.49-27L132.49 0.15Q131.31 0 126.45 0L126.45 0 125.67 0 125.67-27 120.84-27Q118.69-27 118.3-26.78 117.91-26.56 117.69-26.39L117.69-26.39 117.62-26.42 117.62-32.67 117.69-32.74Q118.5-32.47 122.04-32.47L122.04-32.47 137.34-32.47Q139.49-32.47 139.88-32.69 140.27-32.91 140.49-33.08L140.49-33.08 140.57-33.06 140.57-26.81 140.49-26.73Q139.69-27 136.15-27L136.15-27 132.49-27ZM146.57 0L146.57-32.57Q149.01-32.47 149.52-32.47L149.52-32.47 151.28-32.47Q152.58-32.47 153.36-32.67L153.36-32.67 153.33 0 146.57 0ZM179.55-20.07L179.62-14.04Q178.45-14.16 176.6-14.16L176.6-14.16 169.2-14.16 169.2 0 162.51 0 162.51-32.64Q163.17-32.59 164.02-32.57L164.02-32.57 165.83-32.52Q167.69-32.47 169.69-32.47L169.69-32.47Q175.69-32.47 181.16-32.67L181.16-32.67Q180.89-30.52 180.89-26.93L180.89-26.93Q180.89-26.54 180.94-26.34L180.94-26.34 180.89-26.27Q179.6-26.64 177.28-26.64L177.28-26.64 169.2-26.64 169.2-19.92 176.33-19.92Q179.01-19.92 179.55-20.07L179.55-20.07ZM201.59 0L194.27 0Q194.59-0.95 194.59-4.44L194.59-4.44 194.59-11.23Q190.36-20.53 189.19-22.84 188.02-25.15 187.21-26.49L187.21-26.49Q184.67-30.79 184.15-31.42 183.63-32.06 183.09-32.47L183.09-32.47 191.51-32.47Q191.78-31.98 192.24-31.03L192.24-31.03 198.15-18.55Q198.57-19.58 199.13-20.85L199.13-20.85Q204.45-32.3 204.52-32.47L204.52-32.47 212.58-32.47Q211.34-31.47 209.53-28.27L209.53-28.27Q208.97-27.32 208.41-26.1L208.41-26.1 202.89-14.6Q201.96-12.52 201.3-10.86L201.3-10.86 201.3-3.86Q201.3-1.42 201.59 0L201.59 0Z" opacity="1" transform="matrix(1,0,0,1,0,0)" fill="#528265" class="undefined-text-0" data-fill-palette-color="primary" id="text-0"></path></svg></g></svg></g></svg></g></svg></g><g><svg viewBox="0 0 152.5010607946726 152.5010607946726" height="152.5010607946726" width="152.5010607946726"><g><svg></svg></g><g id="icon-0"><svg viewBox="0 0 152.5010607946726 152.5010607946726" height="152.5010607946726" width="152.5010607946726"><g><path d="M0 76.251c0-42.112 34.139-76.251 76.251-76.251 42.112 0 76.251 34.139 76.25 76.251 0 42.112-34.139 76.251-76.25 76.25-42.112 0-76.251-34.139-76.251-76.25zM76.251 146.735c38.927 0 70.484-31.557 70.484-70.484 0-38.927-31.557-70.484-70.484-70.485-38.927 0-70.484 31.557-70.485 70.485 0 38.927 31.557 70.484 70.485 70.484z" data-fill-palette-color="accent" fill="#398378" stroke="transparent"></path></g><g transform="matrix(1,0,0,1,35.052710907791784,35.052710907791784)"><svg viewBox="0 0 82.39563897908904 82.39563897908904" height="82.39563897908904" width="82.39563897908904"><g><svg xmlns="http://www.w3.org/2000/svg" xmlns:xlink="http://www.w3.org/1999/xlink" version="1.0" x="0" y="0" viewBox="1 1 48 48" enable-background="new 0 0 50 50" xml:space="preserve" height="82.39563897908904" width="82.39563897908904" class="icon-x-0" data-fill-palette-color="accent" id="x-0"><g fill="#398378" data-fill-palette-color="accent"><g fill="#398378" data-fill-palette-color="accent"><rect x="1" y="1" fill="#398378" width="23" height="5" data-fill-palette-color="accent"></rect><rect x="1" y="10" fill="#398378" width="23" height="5" data-fill-palette-color="accent"></rect><rect x="1" y="19" fill="#398378" width="23" height="5" data-fill-palette-color="accent"></rect></g><g fill="#398378" data-fill-palette-color="accent"><rect x="26" y="26" fill="#398378" width="23" height="5" data-fill-palette-color="accent"></rect><rect x="26" y="35" fill="#398378" width="23" height="5" data-fill-palette-color="accent"></rect><rect x="26" y="44" fill="#398378" width="23" height="5" data-fill-palette-color="accent"></rect></g><g fill="#398378" data-fill-palette-color="accent"><rect x="19" y="26" fill="#398378" width="5" height="23" data-fill-palette-color="accent"></rect><rect x="10" y="26" fill="#398378" width="5" height="23" data-fill-palette-color="accent"></rect><rect x="1" y="26" fill="#398378" width="5" height="23" data-fill-palette-color="accent"></rect></g><g fill="#398378" data-fill-palette-color="accent"><rect x="44" y="1" fill="#398378" width="5" height="23" data-fill-palette-color="accent"></rect><rect x="35" y="1" fill="#398378" width="5" height="23" data-fill-palette-color="accent"></rect><rect x="26" y="1" fill="#398378" width="5" height="23" data-fill-palette-color="accent"></rect></g></g></svg></g></svg></g></svg></g></svg></g></svg></g></svg><rect width="395.52" height="104.31681046071358" fill="none" stroke="none" visibility="hidden"></rect></g><defs></defs></svg>
